X:1
T:Reliance (Wesley), 10.10.10.10
T:Samuel Sebastian Wesley, 1872
T:Reliance (Wesley), 10.10.10.10
T:Public Domain
C:Samuel Sebastian Wesley, 1872
Z:Public Domain
%%score ( 1 2 ) ( 3 4 )
L:1/8
M:4/4
K:Bb
V:1 treble 
V:2 treble 
V:3 bass 
V:4 bass 
V:1
 [DG]2 | [DB]3 [^Fc] [Gd]2 [Ge]2 | [^Fd]2 (cB) [DA]3 [DA] x | [B,G]6 [DB]2 | %4
 [DB]2 [Fc]2 [Fd]2 [Ec]2 x | [DB]2 [B,d]2 [Cc]3 [DB] | [DB]6 [Fd]2 | [Fd]2 (cB) G2 z d x | %8
 [Gd]2 [Gc]2 A2 (D[=EB]) | [^FA]6 [FA]2 | [^FA]2 [GB]2 [Gc]2 (=FE) | [Dd]2 ([Dc][Cc]) C2 z G x | %12
 [=B,G]6 |] %13
V:2
 x2 | x8 | x2 D2 x5 | x8 | x9 | x8 | x8 | x2 G2 c3 ^F2 | x4 c3 x | x8 | x6 c2 | x4 B3 C2 | x6 |] %13
V:3
 [G,B,]2 | B,2 z A,, [B,,D]2 (CB,) | [D,A,]2 [G,,G,]2 G,2 z D, x | G,6 [G,D]2 | %4
 [G,D]2 [A,C]2 B,2 z A, x | G,2 (F,B,) B,2 (A,[B,,F,]) | [B,,F,]6 B,2 | %7
 B,2 [B,,D]2 [B,=E]2 [B,D]2 x | (DF) [CE]2 ^F,2 z ^C | [D,D]6 [D,D]2 | %10
 [D,D]2 [G,D]2 [C,E]2 [A,,F,C]2 | [B,,-F,B,-][B,,^F,B,] [E,G,]2 G,2 z D, x | [G,,G,]6 |] %13
V:4
 x2 | G,,3 (D2 x C,2) | x4 D,3 ^F,2 | G,6 x2 | x4 B,3 F,2 | G,2 D,2 F,3 x | x6 B,2 | B,2 x7 | %8
 =B,2 x D3 G,2 | x8 | x8 | x4 D,3 ^F,2 | x6 |] %13

